X: 21829
T: Kinnycally Klansmen
R: reel
M: 4/4
K: Gminor
F2 DF G2 BG|FDDB, G,2 B,D|FFFD GFDF|1 FGBc dBBG:|2 FGBc dB B2||
d3 f g2 gf|g2 fd cBGB|cBBG F3 c|dfgf dc c2|
dffd g3 z|bgfb gfdg|fdcd BG G/G/G|FGBc dBBc||
B2 fB gBfB|B/B/B fB G2 FG|B2 fB gBfg|bgfb gfdc|
B2 fB gBfB|B/B/B fB G2 BG|F2 DF GABG|FGBc dB B2||

